!!!!SEGMENT: pl-kozmzk--mzk-m-31--011_szymanowska-maria--preludium-g-dur.krn
!!!cenid: 18xx:447
!!!COM: Szymanowska, Maria
!!!COM-rismID: pe140138
!!!CDT: 1789/12/14-1831/07/25
!!!CNT: Polish
!!!GTL: Vingt Exercices et Préludes pour le Pianoforte
!!!OTL: Preludium G-dur
!!!PDT: 1819
!!!AGN: Secular; Prelude
!!!SMS-siglum: PL-KOZmzk
!!!SMS-shelfmark: mzk/m/31
!!!SMS-shelfwork: 011 G
!!!SMS-variant:
!!!SMS-altvar:
!!!NIFC-rismSourceID: 1001025323
!!!NIFC-rismChildID: 1001025334
!!!NIFC-islandoraID: pl-kozmzk:6325
!!!URL-pdf-islandora: https://repozytorium.nifc.pl/islandora/object/pl-kozmzk%3A6325/datastream/PDF/view
!!!URL-scan: https://polish.musicsources.pl/pl/lokalizacje/galeria/rekopisy/462 @EN{Scan on Polish Music Sources Website} @PL{Skany w portalu Dziedzictwo Muzyki Polskiej w otwartym dostępie}
!!!ONB-nifc:
!!!AIN: 1 piano
!!!key:
!!!OMD:
!!!OMD-mod: Con fuoco
**kern	**fing	**kern	**fing	**dynam
*part1	*	*part1	*	*part1
*staff2	*	*staff1	*	*
*Ipiano	*	*Ipiano	*	*
*I"Piano	*	*I"Piano	*	*
*mI"Pianoforte	*	*mI"Pianoforte	*	*
*I'Pno.	*	*I'Pno.	*	*
*mI'pf	*	*mI'pf	*	*
*clefF4	*	*clefG2	*	*
*k[f#]	*	*k[f#]	*	*
*G:	*	*G:	*	*
*M6/8	*	*M6/8	*	*
=1	=1	=1	=1	=1
!LO:MO:mod=!LO&colon;TX&colon;a&colon;i&colon;t=ten.	!	!	!	!
!LO:TX:a:i:t=ten	!	!LO:TX:a:B:t=Con fuoco:mod=	!	!
.	.	8qdd/	.	.
[2.B\ [2.D\ [2.GG\	.	8.ddd\L	5	.
.	.	16aa#X\L	2	.
.	.	16ccc\	4	.
.	.	16bb\JJ	3	.
.	.	16gg\LL	1	.
.	.	16ff#\	3	.
.	.	16aan\	5	.
.	.	16gg\	4	.
.	.	16dd\	1	.
.	.	16cc#X\JJ	3	.
=2	=2	=2	=2	=2
4.B\] 4.D\] 4.GG\]	.	16ee\LL	5	.
.	.	16dd\	4	.
.	.	16ccn\	3	.
.	.	16b\	2	.
.	.	16a\	1	.
.	.	16g\JJ	3	.
4r	.	16f#\LL	2	.
.	.	16g\	3	.
.	.	16a\	4	.
.	.	16g\	1	.
8r	.	16gg\	5	.
.	.	16ee\JJ	.	.
=3	=3	=3	=3	=3
8qAA/	.	8qe/	.	.
8.A\L	1	8dd\L	.	.
.	.	8cc#X\	.	.
16G#X\L	3	.	.	.
16B\	1	[8ccn\J	.	.
16A\JJ	2	.	.	.
!LO:SIC:s=16G#\LL:v	!	!	!	!
16G#X\LL	3	4cc\]	.	.
16A\	2	.	.	.
16c\	1	.	.	.
16B\	2	.	.	.
16A\	3	8r	.	.
16Gn\JJ	1	.	.	.
=4	=4	=4	=4	=4
!	!	!LO:SIC:o=:v: nuta c przekreślona ukosną kreską	!	!
16F#\LL	2	4aa\ 4dd\ 4cc\ 4a\	.	<
16E\	3	.	.	.
16D\	1	.	.	.
16C\	2	.	.	.
16BB\	3	8r	.	.
16AA\JJ	1	.	.	.
16GG/LL	2	4ddd\ 4aa\ 4ff#\ 4dd\	.	.
16FF#/	3	.	.	.
16EE/	4	.	.	.
16DD/	5	.	.	.
16EE/	4	8r	.	.
16FF#/JJ	3	.	.	[
!!LO:LB:g=original
=5	=5	=5	=5	=5
*^	*	*	*	*
16GG/LL	4GG\	.	16gg\LL	.	.
16G/	.	.	16ggg\	.	.
16D/ 16BB/	.	.	16ff#\	.	.
16G/	.	.	16ggg\	.	.
16D/ 16BB/	8ryy	.	16ee\	.	.
16G/JJ	.	.	16ggg\JJ	.	.
16GG/LL	4GG\	.	16dd\LL	.	.
16G/	.	.	16ggg\	.	.
16D/ 16BB/	.	.	16cc\	.	.
16G/	.	.	16ggg\	.	.
16D/ 16BB/	8ryy	.	16b\	.	.
16G/JJ	.	.	16ggg\JJ	.	.
=6	=6	=6	=6	=6	=6
16GG/LL	4GG\	.	16dd\LL	.	.
16F#/	.	.	16ddd\	.	.
16D/ 16C/	.	.	16cc\	.	.
16F#/	.	.	16ddd\	.	.
16D/ 16C/	8ryy	.	16a\	.	.
16F#/JJ	.	.	16ddd\JJ	.	.
16GG/LL	4GG\	.	4d^/	.	.
16A/	.	.	.	.	.
16D/ 16C/	.	.	.	.	.
16A/	.	.	.	.	.
16D/ 16C/	8ryy	.	16e/LL	.	.
16A/JJ	.	.	16f#/JJ	.	.
*v	*v	*	*	*	*
=7	=7	=7	=7	=7
16GGG/LL	.	16g\LL	.	.
16GG/	.	16gg\	.	.
16DD/ 16BBB/	.	16f#\	.	.
16GG/	.	16gg\	.	.
16DD/ 16BBB/	.	16e\	.	.
16GG/JJ	.	16gg\JJ	.	.
16GGG/LL	.	16d/LL	.	.
16GG/	.	16gg/	.	.
16DD/ 16BBB/	.	16c/	.	.
16GG/	.	16gg/	.	.
16DD/ 16BBB/	.	16B/	.	.
16GG/JJ	.	16gg/JJ	.	.
=8	=8	=8	=8	=8
16GGG/LL	.	16d/LL	.	.
16AA/	.	16dd/	.	.
16DD/ 16CC/	.	16c/	.	.
16AA/	.	16dd/	.	.
16DD/ 16CC/	.	16A/	.	.
16AA/JJ	.	16dd/JJ	.	.
!	!	!LO:MO:mod=*clefF4:null	!	!
*	*	*null	*	*
16GGG\LL	.	4D</	.	.
16AA\	.	.	.	.
16DD\ 16CC\	.	.	.	.
16AA\	.	.	.	.
16DD\ 16CC\	.	16E</LL	.	.
16AA\JJ	.	16F#</JJ	.	.
!	!	!LO:MO:mod=*clefG2:null	!	!
*	*	*null	*	*
!!LO:LB:g=original
=9	=9	=9	=9	=9
4GG/ 4GGG/	.	16G/LL	.	.
.	.	16B/	.	.
.	.	16d/	.	.
.	.	16g/JJ	.	.
8AA/ 8AAA/	.	16d/LL 16c^/	.	.
.	.	16f#/JJ	.	.
4BB/ 4BBB/	.	16B/LL	.	.
.	.	16d/	.	.
.	.	16g/	.	.
.	.	16b/JJ	.	.
8C/ 8CC/	.	16a/LL 16g/ 16e^/	.	.
.	.	16ee/JJ	.	.
=10	=10	=10	=10	=10
4D/ 4DD/	.	16g\LL	.	.
.	.	16b\	.	.
.	.	16dd\	.	.
.	.	16gg\JJ	.	.
8C#X/ 8CC#X/	.	16ee\LL 16b-X\ 16g^<\	.	.
.	.	16gg\JJ	.	.
8D/L 8DD/	.	16dd\LL 16bn\ 16g\	.	f
.	.	16gg\	.	.
8D/ 8DD/	.	16dd\ 16cc\ 16a\	.	.
.	.	16aa\	.	.
8D/J 8DD/	.	16dd\ 16cc\ 16a\	.	.
.	.	16ff#\JJ	.	.
=11	=11	=11	=11	=11
16GG/LL	.	2.gg\ 2.dd\ 2.b\ 2.g\	.	.
16G/	.	.	.	.
16FF#/	.	.	.	.
16G/	.	.	.	.
16EE/	.	.	.	.
16G/JJ	.	.	.	.
16DD/LL	.	.	.	.
16G/	.	.	.	.
16CC/	.	.	.	.
16G/	.	.	.	.
16BBB/	.	.	.	.
16G/JJ	.	.	.	.
=12	=12	=12	=12	=12
*	*	*^	*	*
16CC/LL	.	8ee/L 8a/	4g\	.	.
16C/	.	.	.	.	.
16DD/	.	8dd/	.	.	.
16D/	.	.	.	.	.
16EE-X/	.	8cc#X/J	8b-X\ 8g^\	.	.
16E-X/JJ	.	.	.	.	.
16DD/LL	.	4dd/	4bn\ 4g\	.	.
16D/	.	.	.	.	.
16BB/	.	.	.	.	.
16GG/	.	.	.	.	.
16DD/	.	8dd/	8a\ 8f#\	.	.
16D/JJ	.	.	.	.	.
*	*	*v	*v	*	*
=13	=13	=13	=13	=13
16GG\LL	.	4gg\ 4b\ 4g\	.	<
16G\	.	.	.	.
16GG\	.	.	.	.
16A\	.	.	.	.
16GG\	.	8r	.	.
16B\JJ	.	.	.	.
16C\LL	.	4gg\ 4ee\ 4cc\ 4g\	.	.
16c\	.	.	.	.
16C\	.	.	.	.
16d\	.	.	.	.
16C\	.	8r	.	.
16e\JJ	.	.	.	[
!!LO:LB:g=original
=14	=14	=14	=14	=14
!	!	!	!	!LO:MO:mod=!null:null
.	.	8qdd/	.	f
!	!	!	!	!LO:DY:t= :mod=%s
!	!	!	!	!LO:MO:mod=!LO&colon;DY&colon;ed=
!	!	!	!	!null
16D\LL	.	16ddd\LL	.	f
16G\	.	16bb\	.	.
16B\	.	16gg\	.	.
16d\	.	16dd\	.	.
*clefG2	*	*	*	*
16g\	.	16b\	.	.
16b\JJ	.	16g\JJ	.	.
4dd\	.	4d/	.	.
*clefF4	*	*	*	*
8d\ 8D\	.	8ff#\ 8cc\ 8a\	.	.
=15	=15	=15	=15	=15
4G\	.	16gg\LL 16b\ 16g\	.	.
.	.	8qee/	.	.
.	.	16dd\	.	.
.	.	16cc#X\	.	.
.	.	16dd\JJ	.	.
8d\ 8D\	.	16ff#\LL 16ccn\ 16a\	.	.
.	.	16dd\JJ	.	.
4G\	.	16gg\ 16b\ 16g\	.	.
!	!	!	!	!LO:MO:null:mod=.
.	.	8qe/	.	>
!	!	!	!	!LO:MO:null:mod=>
.	.	16d/LL	.	.
.	.	16c#X/	.	.
.	.	16d/	.	.
8D/ 8DD/	.	16f#/ 16cn/ 16A/	.	.
.	.	16d/JJ	.	.
=16	=16	=16	=16	=16
.	.	8qG/	.	.
[2.E-X\ [2.EE-X\	.	8.b-X/L	.	f
.	.	16f#X/L	.	.
.	.	16a-X/	.	.
.	.	16g/JJ	.	.
.	.	16e-X/LL	.	.
.	.	16d/	.	.
.	.	16fn/	.	.
.	.	16e-/	.	.
.	.	16B-X/	.	.
.	.	16An/JJ	.	.
=17	=17	=17	=17	=17
!	!	!LO:MO:mod=*clefF4:null	!	!
*	*	*null	*	*
4E-/] 4EE-/]	.	16c</LL	5	.
.	.	16B-X</	.	.
.	.	16A-X</	.	.
.	.	16G</	.	.
!LO:SIC:s=8r:v	!	!	!	!
8rFF	.	16F#</	.	.
.	.	16E-X</JJ	.	.
!LO:SIC:s=4r:v	!	!	!	!
4rFF	.	16D</LL	1	.
.	.	16E-</	2	.
.	.	16F#</	3	.
.	.	16E-</	1	.
!LO:SIC:s=8r:v	!	!	!	!
8rFF	.	16e-X</	5	.
.	.	16c</JJ	.	.
!!LO:LB:g=original
=18	=18	=18	=18	=18
8qFFF#/	.	.	.	.
8.FF#`\L	.	16B-X</LL	.	.
.	.	16An</JJ	.	.
.	.	[4A-X</	.	.
16EEn\L	4	.	.	.
16GG\	1	.	.	.
16FF#\JJ	4	.	.	.
16AA-X\LL	2	4A-</]	.	.
16GG\	4	.	.	.
16BB-X\	2	.	.	.
16AA-\	4	.	.	.
16C\	1	8rE	.	.
16BB-\JJ	3	.	.	.
=19	=19	=19	=19	=19
16D\LL	1	2.r	.	.
16C\	4	.	.	.
16E-X\	2	.	.	.
16D\	4	.	.	.
16F#\	1	.	.	.
16E-\JJ	3	.	.	.
16G\LL	1	.	.	.
16F#\	2	.	.	.
16A-X\	1	.	.	.
16F#\	2	.	.	.
16C\	4	.	.	.
16D\JJ	3	.	.	.
!	!	!LO:MO:mod=*clefG2:null	!	!
*	*	*null	*	*
=20	=20	=20	=20	=20
16EE-X\LL	.	16ee-X\LL	.	.
16G\	.	16eee-X\	.	.
16E-X\ 16BB-X\	.	16dd\	.	.
16G\	.	16eee-\	.	.
16E-\ 16BB-\	.	16cc\	.	.
16G\JJ	.	16eee-\JJ	.	.
16EE-\LL	.	16b-X\LL	.	.
16G\	.	16eee-\	.	.
16E-\ 16BB-\	.	16a-X\	.	.
16G\	.	16eee-\	.	.
16E-\ 16BB-\	.	16g\	.	.
16G\JJ	.	16eee-\JJ	.	.
=21	=21	=21	=21	=21
16EE-X\LL	.	16b-X\LL	.	.
16Fn\	.	16bb-X\	.	.
16BB-X\ 16AA-X\	.	16a-X\	.	.
16F\	.	16bb-\	.	.
16BB-\ 16AA-\	.	16fn\	.	.
16F\JJ	.	16bb-\JJ	.	.
16EE-X\LL	.	4B-X^/	.	.
16F\	.	.	.	.
16BB-\ 16AA-\	.	.	.	.
16F\	.	.	.	.
16BB-\ 16AA-\	.	16c/LL	.	.
16F\JJ	.	16d/JJ	.	.
!!LO:LB:g=original
=22	=22	=22	=22	=22
16CC/LL	.	16e-X/LL	.	.
16E-X/	.	16ee-X/	.	.
16GG/ 16EE-X/	.	16d/	.	.
16E-/	.	16ee-/	.	.
16GG/ 16EE-/	.	16c/	.	.
16E-/JJ	.	16ee-/JJ	.	.
*rep	*	*	*	*
16CC/LL	.	16B-X/LL	.	.
16E-/	.	16ee-/	.	.
16GG/ 16EE-/	.	16A-X/	.	.
16E-/	.	16ee-/	.	.
16GG/ 16EE-/	.	16G/	.	.
16E-/JJ	.	16ee-/JJ	.	.
*Xrep	*	*	*	*
=23	=23	=23	=23	=23
16GGG/LL	.	16g/LL	.	.
16GG/	.	16gg/	.	.
16DD/ 16BBBn/	.	16fn/	.	.
16GG/	.	16gg/	.	.
16DD/ 16BBB/	.	16d/	.	.
16GG/JJ	.	16gg/JJ	.	.
16GGG/LL	.	4G^/	.	.
16GG/	.	.	.	.
16DD/ 16BBB/	.	.	.	.
16GG/	.	.	.	.
16DD/ 16BBB/	.	16An/LL	.	.
16GG/JJ	.	16Bn/JJ	.	.
=24	=24	=24	=24	=24
16AAA-X/	.	16c`/	.	.
16C/LL	.	16ccc\LL	.	.
16AA-X/ 16EE-X/	.	16ee-X\	.	.
16C/	.	16ccc\	.	.
!	!	!LO:TX:t=P:problem=mixed beam	!	!
16AAA-/	.	16e-X/	.	.
16C/JJ	.	16ccc\JJ	.	.
16BBB-X/	.	16d`/	.	.
!LO:SIC:s=16F/LL:v	!	!	!	!
16F#/LL	.	16ddd\LL	.	.
!LO:SIC:s=16BB-X/ 16FF/:v	!	!	!	!
16BB-X/ 16FF#/	.	16ffn\	.	.
!LO:SIC:s=16F/:v	!	!	!	!
16F#/	.	16ddd\	.	.
!	!	!LO:TX:t=P:problem=mixed beam	!	!
!	!	!LO:SIC:s=16f/:v	!	!
16BBB-/	.	16f#/	.	.
!LO:SIC:s=16F/JJ:v	!	!	!	!
16F#/JJ	.	16ddd\JJ	.	.
=25	=25	=25	=25	=25
16CC/	.	16e-X`/	.	.
16E-X/LL	.	16eee-X\LL	.	.
16C/ 16GG/	.	16gg\	.	.
16E-/	.	16eee-\	.	.
!	!	!LO:TX:t=P:problem=mixed beam	!	!
16CC/	.	16g\	.	.
16E-/JJ	.	16eee-\JJ	.	.
16DD/	.	16fn`/	.	.
!	!	!LO:SIC:s=16fff\LL:v	!	!
16Fn/LL	.	16fff#\LL	.	.
!LO:SIC:s=16BB-X/ 16FF/:v	!	!	!	!
16BB-X/ 16FF#/	.	16bb-X\	.	.
!	!	!LO:SIC:s=16fff\:v	!	!
16F/	.	16fff#\	.	.
!	!	!LO:TX:t=P:problem=mixed beam	!	!
16DD/	.	16a-X\	.	.
!	!	!LO:SIC:s=16fff\JJ:v	!	!
16F/JJ	.	16fff#\JJ	.	.
!!LO:LB:g=original
=26	=26	=26	=26	=26
16EE-X/	.	16g`/	.	.
16G/LL	.	16ggg\LL	.	.
16E-X/ 16BB-X/	.	16bb-X\	.	.
16G/	.	16ggg\	.	.
!	!	!LO:TX:t=P:problem=mixed beam	!	!
16EE-/	.	16g/	.	.
16G/JJ	.	16ggg\JJ	.	.
16FFn/	.	16a-X`/	.	.
!LO:SIC:s=16F\LL:v	!	!	!	!
16F#\LL	.	16aaa-X\LL	.	.
16D\ 16BB-X\	.	16bb-X\	.	.
!LO:SIC:s=16F\:v	!	!	!	!
16F#\	.	16aaa-\	.	.
!	!	!LO:TX:t=P:problem=mixed beam	!	!
16GG\	.	16g/	.	.
16G\JJ	.	16ggg\JJ	.	.
=27	=27	=27	=27	=27
16AA-X/	.	16fn/	.	.
16c\LL	.	16fffn\LL	.	.
16A-X\	.	16ccc\	.	.
16c\	.	16fff\	.	.
!	!	!LO:TX:t=P:problem=mixed beam	!	!
16AAn\	.	16f/	.	.
16c\JJ	.	16fff\JJ	.	.
16BB-X\LL	.	16g/LL	.	.
!	!	!LO:TX:t=P:problem=mixed beam	!	!
16B-X\	.	16eee-X\	.	.
16BB-\	.	16a-X/	.	.
!	!	!LO:TX:t=P:problem=mixed beam	!	!
16B-\	.	16fff\	.	.
16BB-\	.	16f/	.	.
!	!	!LO:TX:t=P:problem=mixed beam	!	!
16B-\JJ	.	16ddd\JJ	.	.
=28	=28	=28	=28	=28
16E-X\LL	.	2.eee-X\ 2.gg\ 2.ee-X\	.	rfz
16e-X\	.	.	.	.
16D\	.	.	.	.
16e-\	.	.	.	.
16C\	.	.	.	.
16e-\JJ	.	.	.	.
16BB-X\LL	.	.	.	.
16e-\	.	.	.	.
16AA-X\	.	.	.	.
16e-\	.	.	.	.
16GG\	.	.	.	.
16e-\JJ	.	.	.	.
=29	=29	=29	=29	=29
*	*	*^	*	*
!	!	!LO:SIC:s=8cc/L 8a-/:v	!	!	!
16AA-X\LL	.	8cc-X/L 8a/	4e-X\	.	.
16A-X\	.	.	.	.	.
16BB-X\	.	8b-X/	.	.	.
16B-X\	.	.	.	.	.
16C-X\	.	8a/J	8f#\ 8e-\	.	.
16c-X\JJ	.	.	.	.	.
16BB-\LL	.	4b-/ 4g/	4e-\	.	.
16B-\	.	.	.	.	.
16G\	.	.	.	.	.
16E-X\	.	.	.	.	.
16BB-\	.	8b-/ 8fn/	8d\	.	.
16B-\JJ	.	.	.	.	.
*	*	*v	*v	*	*
!!LO:PB:g=original
=30	=30	=30	=30	=30
16EE-X/LL	.	4ee-X\ 4g\ 4e-X\	.	.
16E-X/	.	.	.	.
16EE-/	.	.	.	.
!LO:SIC:s=16F/:v	!	!	!	!
16F#/	.	.	.	.
16EE-/	.	8r	.	<
16G/JJ	.	.	.	.
16AA-X\LL	.	4ccc\ 4aa-X\ 4ee-\ 4cc\	.	.
16A-X\	.	.	.	.
16AA-\	.	.	.	.
16B-X\	.	.	.	.
16AA-\	.	8r	.	.
16c\JJ	.	.	.	[
=31	=31	=31	=31	=31
.	.	8qb-X/	.	.
16BB-X\LL	.	16bb-X\LL	.	.
16E-X\	.	16gg\	.	.
16G\	.	16ee-X\	.	.
16B-X\	.	16b-X\	.	.
*clefG2	*	*	*	*
16e-X\	.	16g\	.	.
16g\JJ	.	16e-X\JJ	.	.
4b-X\	.	4B-X/	.	.
*clefF4	*	*	*	*
!	!	!LO:SIC:s=8dd/ 8a-X/ 8f/:v	!	!
8B-X\ 8BB-X\	.	8dd/ 8a-X/ 8f#/	.	.
=32	=32	=32	=32	=32
4E-X\	.	16ee-X/LL 16g/ 16e-X/	.	.
.	.	8qcc/	.	.
!	!	!LO:SIC:s=16b-/:v	!	!
.	.	16b/	.	.
.	.	16an/	.	.
!	!	!LO:SIC:s=16b-/:v	!	!
.	.	16b/	.	.
!	!	!LO:SIC:s=16dd/ 16a-X/ 16f/:v	!	!
8B-X\ 8BB-X\	.	16dd/ 16a-X/ 16f#/	.	.
!	!	!LO:SIC:s=16b-/JJ:v	!	!
.	.	16b/JJ	.	.
4E-\	.	16ee-/ 16g/ 16e-/	.	.
.	.	8qccc/	.	.
!	!	!LO:SIC:s=16bb-\LL:v	!	!
.	.	16bb\LL	.	.
.	.	16aan\	.	.
!	!	!LO:SIC:s=16bb-\:v	!	!
.	.	16bb\	.	.
!	!	!LO:SIC:s=16ddd\ 16aa-X\ 16ff\:v	!	!
8B-\ 8BB-\	.	16ddd\ 16aa-X\ 16ff#\	.	.
!	!	!LO:SIC:s=16bb-\JJ:v	!	!
.	.	16bb\JJ	.	.
=33	=33	=33	=33	=33
16E-X`\	.	4eee-X\ 4gg\ 4ee-X\	.	.
16d`\LL	.	.	.	.
!LO:SIC:s=(16e-\:v	!	!	!	!
(16e\	.	.	.	.
16An\)	.	.	.	.
16B-X`\	.	8r	.	.
(16F#X\JJ	.	.	.	.
16G\LL)	.	4r	.	.
16D`\	.	.	.	.
(16E-X\	.	.	.	.
16AA\	.	.	.	.
16BB-X\	.	8r	.	.
16GG\JJ)	.	.	.	.
!!LO:LB:g=original
=34	=34	=34	=34	=34
8qCC/	.	.	.	.
16C`/	.	4ggg\ 4eee-X\ 4ccc\ 4gg\	.	.
(16d\LL	.	.	.	.
16e-X\)	.	.	.	.
16Bn`\	.	.	.	.
(16c\	.	8r	.	.
16F#X\JJ)	.	.	.	.
16G`/LL	.	4r	.	.
(16D/	.	.	.	.
16E-X/)	.	.	.	.
16BBn`/	.	.	.	.
(16C/	.	8r	.	.
16GG/JJ)	.	.	.	.
=35	=35	=35	=35	=35
4AA-X/	.	16r	.	.
.	.	(16bbn\LL	2	.
.	.	16ccc\)	3	.
.	.	16gg\	2	.
8r	.	16aa-X\	3	.
.	.	16een\JJ	2	.
!	!	!LO:SIC:s=16ff\LL:v	!	!
4r	.	16ff#\LL	3	.
.	.	16bn\	2	.
.	.	16cc\	3	.
.	.	16g\	2	.
8r	.	16a-X\	3	.
.	.	16f#\JJ	1	.
=36	=36	=36	=36	=36
16BB-X/	.	[4.b-X/ 4.g/ 4.e-X/	.	.
16f#X\LL	.	.	.	.
16g\	.	.	.	.
16d\	.	.	.	.
16e-X\	.	.	.	.
16c\JJ	.	.	.	.
4B-X\	.	16b-/LL]	.	.
.	.	32dd/L 32a-X/ 32f#/	.	.
.	.	32cc/J	.	.
.	.	16b-/	.	.
.	.	16a-X/	.	.
8Bn\	.	16g/	.	.
.	.	16f#/JJ	.	.
=37	=37	=37	=37	=37
16c\	.	4ee-X/ 4g/ 4e-X/	.	.
(16f#X\LL	.	.	.	.
16g\)	.	.	.	.
16d`\	.	.	.	.
(16e-X\	.	8r	.	.
16Bn\JJ)	.	.	.	.
16c`\LL	.	4r	.	.
(16F#X\	.	.	.	.
16G\)	.	.	.	.
16D`\	.	.	.	.
(16E-X\	.	8r	.	.
16C\JJ)	.	.	.	.
!!LO:LB:g=original
=38	=38	=38	=38	=38
16D/	.	[4.ddd\ [4.ff#X\ [4.dd\	.	rfz
*clefG2	*	*	*	*
16cc#X/LL	.	.	.	.
16dd/	.	.	.	.
16g#X/	.	.	.	.
16a/	.	.	.	.
16e##X/JJ	.	.	.	.
16f#X/LL	.	4ddd\] 4ff#\] 4dd\]	.	.
16c#X/	.	.	.	.
16d/	.	.	.	.
*clefF4	*	*	*	*
16G#X/	.	.	.	.
16A/	.	8ccc\ 8aa\ 8dd\	.	.
16F#X/JJ	.	.	.	.
=39	=39	=39	=39	=39
.	.	16qqb/LL	.	.
.	.	16qqgg/JJ	.	.
4G\	.	16ccc\LL	.	.
.	.	16bb-X\	.	.
.	.	16aa\	.	.
.	.	16gg\	.	.
8r	.	16ffn\	.	.
.	.	16ee-X\JJ	.	.
4c\	.	16dd\LL	.	.
.	.	16cc\	.	.
.	.	16b-X\	.	.
.	.	16a\	.	.
8r	.	16cc\	.	.
.	.	16ee-\JJ	.	.
=40	=40	=40	=40	=40
.	.	8qdd/	.	.
16D\LL	.	16ddd\LL	.	.
16G\	.	16bb-X\	.	.
16B-X\	.	16gg\	.	.
16d\	.	16dd\	.	.
*clefG2	*	*	*	*
16g\	.	16b-X\	.	.
16b-X\JJ	.	16g\JJ	.	.
4dd\	.	4d/	.	.
*clefF4	*	*	*	*
8d\ 8D;\	.	8ff#X\ 8cc\ 8a;\	.	f
=41	=41	=41	=41	=41
*^	*	*	*	*
16GG/LL	4GG\	.	16gg\LL	.	p
16G/	.	.	16ggg\	.	.
16D/ 16BB-X/	.	.	16ffn\	.	.
16G/	.	.	16ggg\	.	.
16D/ 16BB-/	8ryy	.	16ee-X\	.	.
16G/JJ	.	.	16ggg\JJ	.	.
*rep	*rep	*	*	*	*
16GG/LL	4GG\	.	16dd\LL	.	.
16G/	.	.	16ggg\	.	.
16D/ 16BB-/	.	.	16cc\	.	.
16G/	.	.	16ggg\	.	.
16D/ 16BB-/	8ryy	.	16b-X\	.	.
16G/JJ	.	.	16ggg\JJ	.	.
*Xrep	*Xrep	*	*	*	*
=42	=42	=42	=42	=42	=42
16GG/LL	4GG\	.	16dd\LL	.	.
16F#/	.	.	16ddd\	.	.
16D/ 16C/	.	.	16cc\	.	.
16F#/	.	.	16ddd\	.	.
16D/ 16C/	8ryy	.	16a\	.	.
16F#/JJ	.	.	16ddd\JJ	.	.
16GG/LL	4GG\	.	4d^/	.	.
16A/	.	.	.	.	.
16D/ 16C/	.	.	.	.	.
16A/	.	.	.	.	.
16D/ 16C/	8ryy	.	16e/LL	.	.
16A/JJ	.	.	16f#X/JJ	.	.
*v	*v	*	*	*	*
!!LO:LB:g=original
=43	=43	=43	=43	=43
16GGG/LL	.	16g/LL	.	f
16GG/	.	16gg/	.	.
16DD/ 16BBBn/	.	16f#/	.	.
16GG/	.	16gg/	.	.
16DD/ 16BBB/	.	16e/	.	.
16GG/JJ	.	16gg/JJ	.	.
*rep	*	*	*	*
16GGG/LL	.	16d/LL	.	.
16GG/	.	16gg/	.	.
16DD/ 16BBB/	.	16c/	.	.
16GG/	.	16gg/	.	.
16DD/ 16BBB/	.	16B/	.	.
16GG/JJ	.	16gg/JJ	.	.
*Xrep	*	*	*	*
=44	=44	=44	=44	=44
16GGG/LL	.	16d/LL	.	.
16AA/	.	16dd/	.	.
16DD/ 16CC/	.	16c/	.	.
16AA/	.	16dd/	.	.
16DD/ 16CC/	.	16A/	.	.
16AA/JJ	.	16dd/JJ	.	.
!	!	!LO:MO:mod=*clefF4:null	!	!
*	*	*null	*	*
16GGG\LL	.	4D<^>/	.	.
16AA\	.	.	.	.
16DD\ 16CC\	.	.	.	.
16AA\	.	.	.	.
16DD\ 16CC\	.	16E</LL	.	.
16AA\JJ	.	16F#</JJ	.	.
!	!	!LO:MO:mod=*clefG2:null	!	!
*	*	*null	*	*
=45	=45	=45	=45	=45
4GG/ 4GGG/	.	16G/LL	.	.
.	.	16B/	.	.
.	.	16d/	.	.
.	.	16g/JJ	.	.
8AA/ 8AAA/	.	16d/LL 16c/	.	.
.	.	16f#/JJ	.	.
4BB/ 4BBB/	.	16B/LL	.	.
.	.	16d/	.	.
.	.	16g/	.	.
.	.	16b/JJ	.	.
8C/ 8CC/	.	16a/LL 16g/ 16e/	.	.
.	.	16ee/JJ	.	.
=46	=46	=46	=46	=46
4D/ 4DD/	.	16g\LL	.	.
.	.	16b\	.	.
.	.	16dd\	.	.
.	.	16gg\JJ	.	.
8C#X/ 8CC#X/	.	16ee\LL 16b-X\ 16g\	.	<
.	.	16gg\JJ	.	.
8D/L 8DD/	.	16dd\LL 16bn\ 16g\	.	.
.	.	16gg\	.	.
8D/ 8DD/	.	16dd\ 16cc\ 16a\	.	.
.	.	16aa\	.	.
8D/J 8DD/	.	16dd\ 16cc\ 16a\	.	.
.	.	16ff#\JJ	.	[
!!LO:LB:g=original
=47	=47	=47	=47	=47
16GG/LL	.	2.gg\ 2.dd\ 2.b\ 2.g\	.	.
16G/	.	.	.	.
16FF#/	.	.	.	.
16G/	.	.	.	.
16EE/	.	.	.	.
16G/JJ	.	.	.	.
16DD/LL	.	.	.	.
16G/	.	.	.	.
16CC/	.	.	.	.
16G/	.	.	.	.
16BBB/	.	.	.	.
16G/JJ	.	.	.	.
=48	=48	=48	=48	=48
*	*	*^	*	*
16CC/LL	.	8ee/L	4a\ 4g\	.	.
16C/	.	.	.	.	.
16DD/	.	8dd/	.	.	.
16D/	.	.	.	.	.
16EE-X/	.	8cc#X/J	8b-X\ 8g\	.	.
16E-X/JJ	.	.	.	.	.
16DD/LL	.	4dd\ 4bn\ 4g\	4.ryyyy	.	.
16D/	.	.	.	.	.
16BB/	.	.	.	.	.
16GG/	.	.	.	.	.
16DD/	.	8dd/ 8a/ 8f#/	.	.	.
16D/JJ	.	.	.	.	.
*	*	*v	*v	*	*
=49	=49	=49	=49	=49
16GG/LL	.	4gg\ 4b\ 4g\	.	.
16G/	.	.	.	.
16GG/	.	.	.	.
16A\	.	.	.	.
16GG/	.	8r	.	.
16B/JJ	.	.	.	.
16C\LL	.	4gg\ 4ee\ 4cc\ 4g\	.	.
16c\	.	.	.	.
16C\	.	.	.	.
16d\	.	.	.	.
16C\	.	8r	.	.
16e\JJ	.	.	.	.
=50	=50	=50	=50	=50
.	.	8qqdd/	.	.
16D\LL	.	16ddd\LL	.	.
16G\	.	16bb\	.	.
16B\	.	16gg\	.	.
16d\	.	16dd\	.	.
*clefG2	*	*	*	*
16g\	.	16b\	.	.
16b\JJ	.	16g\JJ	.	.
4dd\	.	4d/	.	.
*clefF4	*	*	*	*
8d\ 8D\	.	8ff#\ 8cc\ 8a\	.	.
!!LO:LB:g=original
=51	=51	=51	=51	=51
4G\	.	16gg\LL 16b\ 16g\	.	.
.	.	8qee/	.	.
.	.	16dd\	.	.
.	.	16cc#X\	.	.
.	.	16dd\	.	.
8d\ 8D\	.	16ff#\ 16ccn\ 16a\	.	.
.	.	16dd\JJ	.	.
4G\	.	16gg\ 16b\ 16g\	.	.
.	.	8qe/	.	.
.	.	16d/LL	.	.
.	.	16c#X/	.	.
.	.	16d/	.	.
8D/ 8DD/	.	16f#/ 16cn/ 16A/	.	.
.	.	16d/JJ	.	.
=52	=52	=52	=52	=52
16GG/	.	4g/ 4B/ 4G/	.	p
16f#\LL	.	.	.	.
16g\	.	.	.	.
16c#X\	.	.	.	.
16d\	.	8r	.	.
16A#X\JJ	.	.	.	.
16B\LL	.	4r	.	.
16F#\	.	.	.	.
16G\	.	.	.	.
16C#X\	.	.	.	.
16D\	.	8r	.	.
16BB\JJ	.	.	.	.
=53	=53	=53	=53	=53
16GG/	.	4dd/ 4b/ 4g/ 4d/	.	.
*clefG2	*	*	*	*
16a#X/LL	.	.	.	.
16b/	.	.	.	.
16f#/	.	.	.	.
16g/	.	8r	.	<
16c#X/JJ	.	.	.	.
*clefF4	*	*	*	*
16d\LL	.	4r	.	.
16A#X\	.	.	.	.
16B\	.	.	.	.
16F#\	.	.	.	.
16G\	.	8r	.	.
16C#X\JJ	.	.	.	.
=54	=54	=54	=54	=54
16D\	.	16r	.	.
*clefG2	*	*	*	*
16aa#X`\LL	.	16ccc#X`\LL	.	.
(16bb\	.	(16ddd\	.	.
16ff#\)	.	16aa#X\)	.	.
16gg\	.	16bb\	.	.
16cc#X\JJ 16a#X^\	.	16ff#^\JJ	.	.
16dd\LL 16b\	.	16gg\LL	.	.
16a#X\	.	16cc#X\	.	.
16b\	.	16dd\	.	.
16f#\	.	16a#X\	.	.
!	!	!LO:SIC:s=16b\:v	!	!
16g\	.	16b^\	.	.
!	!	!LO:SIC:s=16f#^\JJ:v	!	!
16c#X\JJ 16A#X^\	.	16f#\JJ	.	.
!!LO:LB:g=original
=55	=55	=55	=55	=55
16d\ 16B\	.	16g/LL	.	.
*clefF4	*	*	*	*
16A#X\LL	.	16c#X/	.	.
16B\	.	16d/	.	.
!	!	!LO:MO:mod=*clefF4:null	!	!
*	*	*null	*	*
16F#\	.	16A#X</	.	.
16G\	.	16B</	.	.
16C#X\JJ 16AA#X\	.	16F#</JJ	.	.
16D\LL 16BB\	.	16G</LL	.	.
16AA#X\	.	16C#X</	.	.
16BB\	.	16D</	.	.
16FF#\	.	16AA#X</	.	.
16GG\	.	16BB</	.	.
16DD#X\JJ	.	16FF#</JJ	.	.
=56	=56	=56	=56	=56
8EE\	.	8GG</L	.	.
!LO:SIC:s=8r:v	!	!	!	!
8rCCC	.	8EE</J	.	.
!	!	!LO:MO:mod=*clefG2:null	!	!
*	*	*null	*	*
8CC\	.	[8ee\ [8cc^\	.	.
!	!	!LO:MO:mod=!LO&colon;TX&colon;b&colon;i&colon;t=ritard.	!	!
!	!	!LO:TX:b:i:t=ritar&colon;	!	!
4DD/	.	8ee\]L 8cc\]	.	.
.	.	8dd\ 8b\	.	.
8D\	.	8ff#\J 8cc\ 8a^\	.	.
=57	=57	=57	=57	=57
!	!	!LO:TX:b:i:t=a tempo	!	!
4GG/	.	16gg\LL 16b\ 16g\	.	.
.	.	8qee/	.	.
.	.	16dd\	.	.
.	.	16cc#X\	.	.
.	.	16dd\	.	.
8d\ 8D\	.	16ff#\ 16ccn\ 16a^\	.	.
.	.	16dd\JJ	.	.
4G\	.	16gg\ 16b\ 16g\	.	.
.	.	8qe/	.	.
.	.	16d/LL	.	.
.	.	16c#X/	.	.
.	.	16d/	.	.
8D/ 8DD/	.	16f#/ 16cn/ 16A^>/	.	.
.	.	16d/JJ	.	.
=58	=58	=58	=58	=58
4GG/	.	4g/ 4B/ 4G/	.	.
8r	.	8r	.	.
4D/ 4DD/	.	4ddd\ 4aa\ 4ff#\ 4dd\	.	.
8r	.	8r	.	.
=59	=59	=59	=59	=59
2.G\ 2.GG;\	.	2.bb\ 2.gg\ 2.dd\ 2.b;<\	.	f
!LO:MO:mod=!null:null	!	!	!	!
!LO:TX:b:t=3043	!	!	!	!
==	==	==	==	==
*-	*-	*-	*-	*-
!!!system-decoration: {(s1,s2)}
!!!RDF**kern: > = above
!!!RDF**kern: < = below
!!LO:MO:ori
!!!RDF**dynam: > = dim
!!!RDF**dynam: < = cres
!!LO:MO:end
!!!filter-modern: sic -sq | shed -e "s/LO:DY:(a|b|rj)/LO:dy:$1/L" | shed -e "s/TX(.*):t=P:/tx$1:t=P:/LG" | modori -m | autostem -r | shed -e "s/yy//" | shed -k -e "s/\(y([^y])/($1/" | shed -e "s/^(\d+[\/\\]right)/$1yy/I; s/^(\d+[\/\\]left)/$1yy/I" | shed -e "s/^(X?)rep$/$1REP/I" | shed -k -e "s/[<>]//g"
!!!ENC: Mateusz Solarz
!!!END: 2020-06-16
!!!EED: Leszek Kubiak
!!!EEV: 2020-07-20
!!!EED-modern: Antoni Szymański
!!!END-modern: 2022-09-09
!!!YEC: Copyright 2022 Narodowy Instytut Fryderyka Chopina (https://polishscores.org)
!!!YEM: License CC-BY-4.0 (https://creativecommons.org/licenses/by/4.0)
